X:115
T:Mrs. Dingwell of Brockly's Strathspey
R:Strathspey
C:Robert Petrie
S:MacDonald - The Skye Collection
N:pg.151
M:C
L:1/8
K:F
B|A>FC>F A,>FC>B|A>F A/B/c/A/ B<G G>B|A>FC>F A,>FC>A|B>dc>B A<FF:|
A|F<f f>g f/g/a/g/ f>F|G<g g>a b/a/g/f/ g>a|A<f f>g f/g/a/g/ f>c|d>fc>B A<F F>A|
F<f f>g f/g/a/g/ f>F|G<g g>a b/a/g/f/ g>a|b>g f/g/a/g/ f>dc>B|A>f a/g/f/e/
f<FF||
